assets/img/braze_icons/building-07.svg

<svg fill="none" height="24" viewBox="0 0 24 24" width="24" xmlns="http://www.w3.org/2000/svg"><path clip-rule="evenodd" d="m13.3385 2h-2.677c-.5272-.00002-.98197-.00003-1.35653.03057-.39534.0323-.78856.10362-1.16694.29641-.56449.28762-1.02343.74657-1.31105 1.31105-.19279.37838-.26411.7716-.29641 1.16695-.0306.37457-.03059.82933-.03057 1.35648v3.83854h-1.93191c-.25237-.00003-.49816-.00005-.70631.017-.2286.0186-.49833.0627-.76976.201-.37632.1917-.68228.4977-.87403.874-.1383.2715-.18236.5412-.20104.7698-.01701.2081-.01698.4539-.01695.7063v7.4319c-.55228 0-1 .4477-1 1s.44772 1 1 1h.99721.0028.00279 17.9944.0028.0028.9972c.5523 0 1-.4477 1-1s-.4477-1-1-1v-7.432c0-.2523.0001-.4981-.0169-.7062-.0187-.2286-.0628-.4983-.2011-.7698-.1917-.3763-.4977-.6823-.874-.874-.2714-.1383-.5412-.1824-.7698-.201-.2081-.01705-.4539-.01703-.7063-.017h-1.9319v-3.83866c0-.52709 0-.98183-.0306-1.35636-.0323-.39535-.1036-.78857-.2964-1.16695-.2876-.56448-.7465-1.02343-1.311-1.31105-.3784-.19279-.7716-.26411-1.167-.29641-.3745-.0306-.8293-.03059-1.3565-.03057zm-3.3385 5c0-.55228.4477-1 1-1h2c.5523 0 1 .44772 1 1 0 .55229-.4477 1-1 1h-2c-.5523 0-1-.44771-1-1zm0 4c0-.5523.4477-1 1-1h2c.5523 0 1 .4477 1 1s-.4477 1-1 1h-2c-.5523 0-1-.4477-1-1zm1 3c-.5523 0-1 .4477-1 1s.4477 1 1 1h2c.5523 0 1-.4477 1-1s-.4477-1-1-1z" fill="#801ed7" fill-rule="evenodd"/></svg>

<svg width="24" height="24" viewBox="0 0 24 24" fill="none" xmlns="http://www.w3.org/2000/svg">
<path fill-rule="evenodd" clip-rule="evenodd" d="M13.3385 2H10.6615C10.1343 1.99998 9.67953 1.99997 9.30497 2.03057C8.90963 2.06287 8.51641 2.13419 8.13803 2.32698C7.57354 2.6146 7.1146 3.07355 6.82698 3.63803C6.63419 4.01641 6.56287 4.40963 6.53057 4.80498C6.49997 5.17955 6.49998 5.63431 6.5 6.16146L6.5 10L4.56809 10C4.31572 9.99997 4.06993 9.99995 3.86178 10.017C3.63318 10.0356 3.36345 10.0797 3.09202 10.218C2.7157 10.4097 2.40974 10.7157 2.21799 11.092C2.07969 11.3635 2.03563 11.6332 2.01695 11.8618C1.99994 12.0699 1.99997 12.3157 2 12.5681L2 20C1.44772 20 1 20.4477 1 21C1 21.5523 1.44772 22 2 22H2.99721L3.00001 22L3.0028 22H20.9972L21 22L21.0028 22H22C22.5523 22 23 21.5523 23 21C23 20.4477 22.5523 20 22 20L22 12.568C22 12.3157 22.0001 12.0699 21.9831 11.8618C21.9644 11.6332 21.9203 11.3635 21.782 11.092C21.5903 10.7157 21.2843 10.4097 20.908 10.218C20.6366 10.0797 20.3668 10.0356 20.1382 10.017C19.9301 9.99995 19.6843 9.99997 19.4319 10L17.5 10V6.16134C17.5 5.63425 17.5 5.17951 17.4694 4.80498C17.4371 4.40963 17.3658 4.01641 17.173 3.63803C16.8854 3.07355 16.4265 2.6146 15.862 2.32698C15.4836 2.13419 15.0904 2.06287 14.695 2.03057C14.3205 1.99997 13.8657 1.99998 13.3385 2ZM10 7C10 6.44772 10.4477 6 11 6H13C13.5523 6 14 6.44772 14 7C14 7.55229 13.5523 8 13 8H11C10.4477 8 10 7.55229 10 7ZM10 11C10 10.4477 10.4477 10 11 10H13C13.5523 10 14 10.4477 14 11C14 11.5523 13.5523 12 13 12H11C10.4477 12 10 11.5523 10 11ZM11 14C10.4477 14 10 14.4477 10 15C10 15.5523 10.4477 16 11 16H13C13.5523 16 14 15.5523 14 15C14 14.4477 13.5523 14 13 14H11Z" fill="#801ED7"/>
</svg>
